src/components/Home/HowItWorks/assets/how-iq.svg

<svg width="81" height="110" viewBox="0 0 81 110" fill="none" xmlns="http://www.w3.org/2000/svg">
<path d="M51.351 19.1105V33.2099H37.2852V22.6353C38.619 21.2983 39.4678 20.4475 40.8016 19.1105H51.351Z" fill="#B69538"/>
<path d="M51.351 19.1105V33.2099H37.2852V22.6353C38.619 21.2983 39.4678 20.4475 40.8016 19.1105H51.351V19.1105Z" stroke="#010101" stroke-width="1.6785" stroke-miterlimit="10" stroke-linecap="round" stroke-linejoin="round"/>
<path d="M58.6285 53.0221C60.5686 53.0221 62.145 54.6022 62.145 56.547C62.145 58.4917 60.5686 60.0718 58.6285 60.0718C56.6884 60.0718 55.112 58.4917 55.112 56.547C54.9908 54.6022 56.5671 53.0221 58.6285 53.0221Z" fill="#B69538"/>
<path d="M58.6285 53.0221C60.5686 53.0221 62.145 54.6022 62.145 56.547C62.145 58.4917 60.5686 60.0718 58.6285 60.0718C56.6884 60.0718 55.112 58.4917 55.112 56.547C54.9908 54.6022 56.5671 53.0221 58.6285 53.0221Z" stroke="#010101" stroke-width="1.6785" stroke-miterlimit="10" stroke-linecap="round" stroke-linejoin="round"/>
<path d="M44.6844 59.2209C46.6246 59.2209 48.2009 60.8011 48.2009 62.7458C48.2009 64.6906 46.6246 66.2707 44.6844 66.2707C42.7443 66.2707 41.168 64.6906 41.168 62.7458C41.168 60.8011 42.7443 59.2209 44.6844 59.2209Z" fill="#B69538"/>
<path d="M44.6844 59.2209C46.6246 59.2209 48.2009 60.8011 48.2009 62.7458C48.2009 64.6906 46.6246 66.2707 44.6844 66.2707C42.7443 66.2707 41.168 64.6906 41.168 62.7458C41.168 60.8011 42.7443 59.2209 44.6844 59.2209Z" stroke="#010101" stroke-width="1.6785" stroke-miterlimit="10" stroke-linecap="round" stroke-linejoin="round"/>
<path d="M30.2535 53.0221C32.1936 53.0221 33.77 54.6022 33.77 56.547C33.77 58.4917 32.1936 60.0718 30.2535 60.0718C28.3134 60.0718 26.737 58.4917 26.737 56.547C26.6158 54.6022 28.1921 53.0221 30.2535 53.0221Z" fill="#B69538"/>
<path d="M30.2535 53.0221C32.1936 53.0221 33.77 54.6022 33.77 56.547C33.77 58.4917 32.1936 60.0718 30.2535 60.0718C28.3134 60.0718 26.737 58.4917 26.737 56.547C26.6158 54.6022 28.1921 53.0221 30.2535 53.0221Z" stroke="#010101" stroke-width="1.6785" stroke-miterlimit="10" stroke-linecap="round" stroke-linejoin="round"/>
<path d="M26.1303 35.7625H19.3398" stroke="#010101" stroke-width="1.6785" stroke-miterlimit="10" stroke-linecap="round" stroke-linejoin="round"/>
<path d="M62.5078 35.7625H69.2982" stroke="#010101" stroke-width="1.6785" stroke-miterlimit="10" stroke-linecap="round" stroke-linejoin="round"/>
<path d="M30.0078 40.5027V11.8176H58.6246V40.5027" stroke="#010101" stroke-width="3.3569" stroke-miterlimit="10" stroke-linecap="round" stroke-linejoin="round"/>
<path d="M37.2852 33.2099V22.6353C38.619 21.2983 39.4678 20.4475 40.8016 19.1105H51.351V33.2099H37.2852Z" stroke="#010101" stroke-width="1.6785" stroke-miterlimit="10" stroke-linecap="round" stroke-linejoin="round"/>
<path d="M44.3203 7.80663V1" stroke="#010101" stroke-width="1.6785" stroke-miterlimit="10" stroke-linecap="round" stroke-linejoin="round"/>
<path d="M53.8984 7.80663V1" stroke="#010101" stroke-width="1.6785" stroke-miterlimit="10" stroke-linecap="round" stroke-linejoin="round"/>
<path d="M34.7422 7.80663V1" stroke="#010101" stroke-width="1.6785" stroke-miterlimit="10" stroke-linecap="round" stroke-linejoin="round"/>
<path d="M26.1303 26.1603H19.3398" stroke="#010101" stroke-width="1.6785" stroke-miterlimit="10" stroke-linecap="round" stroke-linejoin="round"/>
<path d="M26.1303 16.558H19.3398" stroke="#010101" stroke-width="1.6785" stroke-miterlimit="10" stroke-linecap="round" stroke-linejoin="round"/>
<path d="M62.5078 26.1603H69.2982" stroke="#010101" stroke-width="1.6785" stroke-miterlimit="10" stroke-linecap="round" stroke-linejoin="round"/>
<path d="M62.5078 16.558H69.2982" stroke="#010101" stroke-width="1.6785" stroke-miterlimit="10" stroke-linecap="round" stroke-linejoin="round"/>
<path d="M37.0434 107.961C31.7081 107.961 28.7979 94.9558 28.7979 94.9558C28.7979 94.9558 14.247 95.1989 12.3069 92.1602C10.8518 89.9724 10.9731 88.5138 12.0644 84.6243C13.1557 80.8563 7.09281 83.0442 9.88174 78.79C11.2156 76.8453 6.72904 76.116 9.15419 72.105C10.488 69.9171 2.24251 69.3094 2 66.5138C2.97006 62.3812 9.27545 57.3978 9.51796 49.8619C9.63922 47.0663 9.88174 44.3922 10.2455 41.9613H78.3922C78.756 44.2707 78.8772 46.7016 78.8772 49.3757C78.9985 67.8508 68.0853 71.2541 66.1452 77.453C64.3263 83.2873 67.479 85.232 66.024 88.3922" stroke="#010101" stroke-width="3.3569" stroke-miterlimit="10" stroke-linecap="round" stroke-linejoin="round"/>
<path d="M58.6289 45.243V53.022" stroke="#010101" stroke-width="1.6785" stroke-miterlimit="10" stroke-linecap="round" stroke-linejoin="round"/>
<path d="M62.1423 56.547C62.1423 58.4917 60.566 60.0718 58.6258 60.0718C56.6857 60.0718 55.1094 58.4917 55.1094 56.547C55.1094 54.6022 56.6857 53.0221 58.6258 53.0221C60.566 53.0221 62.1423 54.6022 62.1423 56.547Z" stroke="#010101" stroke-width="1.6785" stroke-miterlimit="10" stroke-linecap="round" stroke-linejoin="round"/>
<path d="M30.2539 45.243V53.022" stroke="#010101" stroke-width="1.6785" stroke-miterlimit="10" stroke-linecap="round" stroke-linejoin="round"/>
<path d="M33.7712 56.547C33.7712 58.4917 32.1949 60.0718 30.2547 60.0718C28.3146 60.0718 26.7383 58.4917 26.7383 56.547C26.7383 54.6022 28.3146 53.0221 30.2547 53.0221C32.1949 53.0221 33.7712 54.6022 33.7712 56.547Z" stroke="#010101" stroke-width="1.6785" stroke-miterlimit="10" stroke-linecap="round" stroke-linejoin="round"/>
<path d="M44.6836 45.243V59.2209V59.3425" stroke="#010101" stroke-width="1.6785" stroke-miterlimit="10" stroke-linecap="round" stroke-linejoin="round"/>
<path d="M48.3181 62.8674C48.3181 64.8121 46.7417 66.3923 44.8016 66.3923C42.8615 66.3923 41.2852 64.8121 41.2852 62.8674C41.2852 60.9226 42.8615 59.3425 44.8016 59.3425C46.7417 59.3425 48.3181 60.8011 48.3181 62.8674Z" stroke="#010101" stroke-width="1.6785" stroke-miterlimit="10" stroke-linecap="round" stroke-linejoin="round"/>
</svg>

<svg width="81" height="110" fill="none" xmlns="http://www.w3.org/2000/svg"><path d="M51.351 19.11v14.1H37.285V22.635l3.517-3.525H51.35z" fill="#B69538"/><path d="M51.351 19.11v14.1H37.285V22.635l3.517-3.525H51.35z" stroke="#010101" stroke-width="1.679" stroke-miterlimit="10" stroke-linecap="round" stroke-linejoin="round"/><path d="M58.629 53.022c1.94 0 3.516 1.58 3.516 3.525a3.523 3.523 0 0 1-3.517 3.525 3.523 3.523 0 0 1-3.516-3.525c-.121-1.945 1.455-3.525 3.517-3.525z" fill="#B69538"/><path d="M58.629 53.022c1.94 0 3.516 1.58 3.516 3.525a3.523 3.523 0 0 1-3.517 3.525 3.523 3.523 0 0 1-3.516-3.525c-.121-1.945 1.455-3.525 3.517-3.525z" stroke="#010101" stroke-width="1.679" stroke-miterlimit="10" stroke-linecap="round" stroke-linejoin="round"/><path d="M44.684 59.22c1.94 0 3.517 1.581 3.517 3.526a3.523 3.523 0 0 1-3.517 3.525 3.523 3.523 0 0 1-3.516-3.525 3.523 3.523 0 0 1 3.516-3.525z" fill="#B69538"/><path d="M44.684 59.22c1.94 0 3.517 1.581 3.517 3.526a3.523 3.523 0 0 1-3.517 3.525 3.523 3.523 0 0 1-3.516-3.525 3.523 3.523 0 0 1 3.516-3.525z" stroke="#010101" stroke-width="1.679" stroke-miterlimit="10" stroke-linecap="round" stroke-linejoin="round"/><path d="M30.253 53.022c1.94 0 3.517 1.58 3.517 3.525a3.523 3.523 0 0 1-3.517 3.525 3.523 3.523 0 0 1-3.516-3.525c-.121-1.945 1.455-3.525 3.517-3.525z" fill="#B69538"/><path d="M30.253 53.022c1.94 0 3.517 1.58 3.517 3.525a3.523 3.523 0 0 1-3.517 3.525 3.523 3.523 0 0 1-3.516-3.525c-.121-1.945 1.455-3.525 3.517-3.525zm-4.123-17.26h-6.79m43.168 0h6.79" stroke="#010101" stroke-width="1.679" stroke-miterlimit="10" stroke-linecap="round" stroke-linejoin="round"/><path d="M30.008 40.503V11.818h28.617v28.685" stroke="#010101" stroke-width="3.357" stroke-miterlimit="10" stroke-linecap="round" stroke-linejoin="round"/><path d="M37.285 33.21V22.635l3.517-3.525H51.35v14.1H37.285zM44.32 7.807V1m9.578 6.807V1M34.742 7.807V1M26.13 26.16h-6.79m6.79-9.602h-6.79m43.168 9.602h6.79m-6.79-9.602h6.79" stroke="#010101" stroke-width="1.679" stroke-miterlimit="10" stroke-linecap="round" stroke-linejoin="round"/><path d="M37.043 107.961c-5.335 0-8.245-13.005-8.245-13.005s-14.551.243-16.491-2.796c-1.455-2.188-1.334-3.646-.243-7.536 1.092-3.768-4.971-1.58-2.182-5.834 1.334-1.945-3.153-2.674-.728-6.685 1.334-2.188-6.911-2.796-7.154-5.591.97-4.133 7.275-9.116 7.518-16.652.121-2.796.364-5.47.727-7.9h68.147c.364 2.309.485 4.74.485 7.414C79 67.85 68.085 71.254 66.145 77.453c-1.819 5.834 1.334 7.779-.121 10.94" stroke="#010101" stroke-width="3.357" stroke-miterlimit="10" stroke-linecap="round" stroke-linejoin="round"/><path d="M58.629 45.243v7.779m3.513 3.525a3.523 3.523 0 0 1-3.516 3.525 3.523 3.523 0 0 1-3.517-3.525 3.523 3.523 0 0 1 3.517-3.525c1.94 0 3.516 1.58 3.516 3.525zM30.254 45.243v7.779m3.517 3.525a3.523 3.523 0 0 1-3.516 3.525 3.523 3.523 0 0 1-3.517-3.525 3.523 3.523 0 0 1 3.517-3.525c1.94 0 3.516 1.58 3.516 3.525zm10.913-11.304v14.1m3.634 3.524a3.523 3.523 0 0 1-3.516 3.525 3.523 3.523 0 0 1-3.517-3.525 3.523 3.523 0 0 1 3.517-3.524c1.94 0 3.516 1.458 3.516 3.524z" stroke="#010101" stroke-width="1.679" stroke-miterlimit="10" stroke-linecap="round" stroke-linejoin="round"/></svg>
